brandFactory_export/3.Masa/Academic_3Masa.svg

<?xml version="1.0" encoding="UTF-8"?>
<svg width="24px" height="24px" viewBox="0 0 24 24" version="1.1" xmlns="http://www.w3.org/2000/svg" xmlns:xlink="http://www.w3.org/1999/xlink">
    <title>3.Masa/Academic_3Masa</title>
    <g id="Symbols" stroke="none" stroke-width="1" fill="none" fill-rule="evenodd">
        <g id="3.Masa/Academic_3Masa" fill="#5CB615" fill-rule="nonzero">
            <path d="M11.3714286,16.0890756 C11.7613445,16.0890756 12.1478992,15.9915966 12.4403361,15.8941176 L19.6302521,12.687395 L19.6302521,15.9915966 C19.6302521,16.9630252 18.9512605,17.7394958 18.0773109,17.9344538 C16.5243697,18.2268908 14.3865546,18.8084034 12.8302521,20.0722689 C12.4403361,20.3647059 11.9563025,20.5596639 11.4689076,20.5596639 C10.9815126,20.5596639 10.497479,20.3647059 10.107563,20.0722689 C8.55462185,18.8084034 6.41680672,18.2268908 4.8605042,17.9344538 C3.98655462,17.7394958 3.30756303,16.9630252 3.30756303,15.9915966 L3.30756303,12.7848739 L10.302521,15.8941176 C10.594958,15.9915966 10.9848739,16.0890756 11.3714286,16.0890756 L11.3714286,16.0890756 Z M22.6420168,17.4470588 C23.1294118,17.8369748 23.4184874,18.6134454 23.4184874,19.097479 C23.4184874,19.389916 23.3210084,19.6789916 23.1260504,19.7764706 C22.9310924,19.9714286 22.5445378,20.0689076 22.2521008,20.0689076 L21.6672269,20.0689076 C21.2773109,20.0689076 20.8907563,20.0689076 20.5983193,19.7764706 C20.4033613,19.5815126 20.3058824,19.3865546 20.3058824,19.097479 C20.3058824,18.610084 20.5983193,17.8336134 21.0823529,17.4470588 L21.0823529,10.9394958 L11.9495798,15.0201681 C11.7546218,15.1176471 11.4621849,15.2151261 11.2705882,15.2151261 C10.9781513,15.2151261 10.7831933,15.1176471 10.5915966,15.0201681 L1.07563025,10.7445378 C0.396638655,10.4521008 0.00672268908,9.87058824 0.00672268908,9.09411765 C0.00672268908,8.41512605 0.396638655,7.73277311 1.07563025,7.44369748 L10.594958,3.16806723 C11.0823529,2.97310924 11.5663866,2.97310924 12.0537815,3.16806723 L21.5731092,7.44369748 C22.5546218,7.89411765 22.5445378,9.01344538 22.5445378,9.58151261 L22.6420168,17.4470588 L22.6420168,17.4470588 Z" id="Academic_3Masa"></path>
        </g>
    </g>
</svg>

<svg width="24" height="24" viewBox="0 0 24 24" xmlns="http://www.w3.org/2000/svg"><path d="M11.371 16.09c.39 0 .777-.098 1.07-.196l7.19-3.207v3.305c0 .971-.68 1.747-1.554 1.942-1.553.293-3.69.874-5.247 2.138-.39.293-.874.488-1.361.488s-.972-.195-1.361-.488c-1.553-1.264-3.691-1.845-5.247-2.138a1.985 1.985 0 01-1.553-1.942v-3.207l6.995 3.11c.292.097.682.194 1.068.194zm11.271 1.357c.487.39.776 1.166.776 1.65 0 .293-.097.582-.292.68-.195.194-.581.292-.874.292h-.585c-.39 0-.776 0-1.069-.293-.195-.194-.292-.39-.292-.679 0-.487.292-1.263.776-1.65V10.94L11.95 15.02c-.195.098-.488.195-.68.195-.292 0-.487-.097-.678-.195l-9.516-4.275c-.68-.293-1.07-.874-1.07-1.65 0-.68.39-1.362 1.07-1.651l9.519-4.276a1.892 1.892 0 011.459 0l9.52 4.276c.98.45.97 1.57.97 2.138l.098 7.865z" fill="#5CB615" fill-rule="nonzero"/></svg>
